dist/img/home/about/6.svg

<svg width="30" height="32" viewBox="0 0 30 32" fill="none" xmlns="http://www.w3.org/2000/svg">
<path d="M29.3765 17.4938H28.1296V13.7835C28.1296 12.7068 27.3572 11.8071 26.3373 11.6084L27.3739 10.5727C27.7321 10.2148 27.9294 9.73881 27.9294 9.23261C27.9294 8.7264 27.7321 8.25044 27.3739 7.89256L20.0293 0.553932C19.2902 -0.184644 18.0876 -0.184644 17.3485 0.553932L6.32603 11.5676H2.21716C0.99464 11.5676 0 12.5616 0 13.7835V29.7056C0 30.9274 0.994578 31.9214 2.21716 31.9214H25.9124C27.1349 31.9214 28.1296 30.9274 28.1296 29.7056V25.9952H29.3765C29.7208 25.9952 30 25.7161 30 25.3717V18.1173C30 17.7729 29.7208 17.4938 29.3765 17.4938ZM18.2299 1.43603C18.4829 1.18315 18.8949 1.18315 19.1479 1.43603L26.4925 8.77466C26.6149 8.89699 26.6824 9.05966 26.6824 9.23261C26.6824 9.40556 26.6149 9.56823 26.4925 9.69056L24.614 11.5675H22.4288L23.2242 10.7727C23.3412 10.6558 23.407 10.4972 23.407 10.3317C23.407 10.1662 23.3412 10.0076 23.2242 9.89063C23.0482 9.71481 22.9514 9.48107 22.9514 9.23255C22.9514 8.98396 23.0482 8.75022 23.2242 8.5744C23.3412 8.45743 23.407 8.29882 23.407 8.13335C23.407 7.96794 23.3412 7.80926 23.2242 7.6923L20.2297 4.70021C19.9864 4.45693 19.5918 4.45693 19.3483 4.70021C18.9848 5.06339 18.3932 5.06351 18.0297 4.70021C17.7863 4.45699 17.3918 4.45699 17.1483 4.70021L10.2755 11.5676H8.09023L18.2299 1.43603ZM21.9652 10.268L20.6646 11.5676H12.0397L17.6531 5.95864C18.2971 6.30599 19.0806 6.30605 19.7247 5.95864L21.9652 8.19726C21.7948 8.51155 21.7043 8.86513 21.7043 9.23267C21.7043 9.60015 21.7947 9.95373 21.9652 10.268ZM1.24703 29.7055V13.7835C1.24703 13.2492 1.68222 12.8146 2.21723 12.8146H3.85686V30.6744H2.21716C1.68222 30.6744 1.24703 30.2398 1.24703 29.7055ZM26.8826 29.7055C26.8826 30.2398 26.4474 30.6744 25.9124 30.6744H5.10376V12.8146H25.9124C26.4473 12.8146 26.8826 13.2492 26.8826 13.7835V17.4938H22.1562C19.8123 17.4938 17.9055 19.4007 17.9055 21.7445C17.9055 24.0883 19.8123 25.9952 22.1562 25.9952H26.8826V29.7055ZM28.753 24.7482H22.1562C20.4999 24.7482 19.1524 23.4007 19.1524 21.7444C19.1524 20.0882 20.4999 18.7407 22.1562 18.7407H28.753V24.7482Z" fill="#E0191C"/>
<path d="M20.4997 21.7445C20.4997 22.8868 21.4296 23.8162 22.5725 23.8162C23.7155 23.8162 24.6453 22.8868 24.6453 21.7445C24.6453 20.6022 23.7155 19.6729 22.5725 19.6729C21.4296 19.6728 20.4997 20.6022 20.4997 21.7445ZM22.5725 20.9198C23.0279 20.9198 23.3984 21.2897 23.3984 21.7444C23.3984 22.1992 23.0279 22.5691 22.5725 22.5691C22.1171 22.5691 21.7467 22.1992 21.7467 21.7444C21.7467 21.2897 22.1171 20.9198 22.5725 20.9198Z" fill="#E0191C"/>
</svg>

<svg width="30" height="32" viewBox="0 0 30 32" fill="none" xmlns="http://www.w3.org/2000/svg"><path d="M29.377 17.494H28.13v-3.71a2.22 2.22 0 00-1.793-2.176l1.037-1.035c.358-.358.555-.834.555-1.34a1.88 1.88 0 00-.555-1.34L20.029.553a1.899 1.899 0 00-2.68 0L6.326 11.569H2.217A2.219 2.219 0 000 13.784v15.922c0 1.221.995 2.215 2.217 2.215h23.695a2.22 2.22 0 002.218-2.215v-3.71h1.247c.344 0 .623-.28.623-.624v-7.255a.623.623 0 00-.623-.623zM18.23 1.436a.65.65 0 01.918 0l7.345 7.339a.643.643 0 010 .916l-1.879 1.877h-2.185l.795-.795a.623.623 0 000-.882.924.924 0 01-.273-.658c0-.249.097-.483.273-.659a.624.624 0 000-.882L20.23 4.7a.623.623 0 00-.882 0 .934.934 0 01-1.318 0 .624.624 0 00-.882 0l-6.873 6.868H8.09L18.23 1.436zm3.735 8.832l-1.3 1.3H12.04l5.613-5.61a2.19 2.19 0 002.072 0l2.24 2.24c-.17.314-.26.667-.26 1.035 0 .367.09.72.26 1.035zM1.247 29.706V13.784a.97.97 0 01.97-.97h1.64v17.86h-1.64a.97.97 0 01-.97-.968zm25.636 0a.97.97 0 01-.97.968H5.102v-17.86h20.81a.97.97 0 01.97.97v3.71h-4.727a4.256 4.256 0 00-4.25 4.25 4.256 4.256 0 004.25 4.251h4.727v3.71zm1.87-4.958h-6.597a3.007 3.007 0 01-3.004-3.004 3.007 3.007 0 013.004-3.003h6.597v6.007z" fill="#E0191C"/><path d="M20.5 21.744c0 1.143.93 2.072 2.073 2.072 1.142 0 2.072-.93 2.072-2.072s-.93-2.071-2.072-2.071c-1.143 0-2.073.93-2.073 2.072zm2.073-.824c.455 0 .825.37.825.824a.826.826 0 01-1.651 0c0-.454.37-.824.826-.824z" fill="#E0191C"/></svg>
